bernoullicharts/pow_x_1_3__mean.svg

<?xml version="1.0" encoding="utf-8" standalone="no"?>
<!DOCTYPE svg PUBLIC "-//W3C//DTD SVG 1.1//EN"
  "http://www.w3.org/Graphics/SVG/1.1/DTD/svg11.dtd">
<!-- Created with matplotlib (https://matplotlib.org/) -->
<svg height="345.6pt" version="1.1" viewBox="0 0 460.8 345.6" width="460.8pt" xmlns="http://www.w3.org/2000/svg" xmlns:xlink="http://www.w3.org/1999/xlink">
 <defs>
  <style type="text/css">
*{stroke-linecap:butt;stroke-linejoin:round;}
  </style>
 </defs>
 <g id="figure_1">
  <g id="patch_1">
   <path d="M 0 345.6 
L 460.8 345.6 
L 460.8 0 
L 0 0 
z
" style="fill:#ffffff;"/>
  </g>
  <g id="axes_1">
   <g id="patch_2">
    <path d="M 57.6 307.584 
L 414.72 307.584 
L 414.72 41.472 
L 57.6 41.472 
z
" style="fill:#ffffff;"/>
   </g>
   <g id="matplotlib.axis_1">
    <g id="xtick_1">
     <g id="line2d_1">
      <defs>
       <path d="M 0 0 
L 0 3.5 
" id="mffdb030c91" style="stroke:#000000;stroke-width:0.8;"/>
      </defs>
      <g>
       <use style="stroke:#000000;stroke-width:0.8;" x="73.800255" xlink:href="#mffdb030c91" y="307.584"/>
      </g>
     </g>
     <g id="text_1">
      <text style="font-family:DejaVu Sans;font-size:10px;font-style:normal;font-weight:normal;text-anchor:middle;" transform="rotate(-0, 73.800255, 322.182437)" x="73.800255" y="322.182437">0.0</text>
     </g>
    </g>
    <g id="xtick_2">
     <g id="line2d_2">
      <g>
       <use style="stroke:#000000;stroke-width:0.8;" x="138.744153" xlink:href="#mffdb030c91" y="307.584"/>
      </g>
     </g>
     <g id="text_2">
      <text style="font-family:DejaVu Sans;font-size:10px;font-style:normal;font-weight:normal;text-anchor:middle;" transform="rotate(-0, 138.744153, 322.182437)" x="138.744153" y="322.182437">0.2</text>
     </g>
    </g>
    <g id="xtick_3">
     <g id="line2d_3">
      <g>
       <use style="stroke:#000000;stroke-width:0.8;" x="203.688051" xlink:href="#mffdb030c91" y="307.584"/>
      </g>
     </g>
     <g id="text_3">
      <text style="font-family:DejaVu Sans;font-size:10px;font-style:normal;font-weight:normal;text-anchor:middle;" transform="rotate(-0, 203.688051, 322.182437)" x="203.688051" y="322.182437">0.4</text>
     </g>
    </g>
    <g id="xtick_4">
     <g id="line2d_4">
      <g>
       <use style="stroke:#000000;stroke-width:0.8;" x="268.631949" xlink:href="#mffdb030c91" y="307.584"/>
      </g>
     </g>
     <g id="text_4">
      <text style="font-family:DejaVu Sans;font-size:10px;font-style:normal;font-weight:normal;text-anchor:middle;" transform="rotate(-0, 268.631949, 322.182437)" x="268.631949" y="322.182437">0.6</text>
     </g>
    </g>
    <g id="xtick_5">
     <g id="line2d_5">
      <g>
       <use style="stroke:#000000;stroke-width:0.8;" x="333.575847" xlink:href="#mffdb030c91" y="307.584"/>
      </g>
     </g>
     <g id="text_5">
      <text style="font-family:DejaVu Sans;font-size:10px;font-style:normal;font-weight:normal;text-anchor:middle;" transform="rotate(-0, 333.575847, 322.182437)" x="333.575847" y="322.182437">0.8</text>
     </g>
    </g>
    <g id="xtick_6">
     <g id="line2d_6">
      <g>
       <use style="stroke:#000000;stroke-width:0.8;" x="398.519745" xlink:href="#mffdb030c91" y="307.584"/>
      </g>
     </g>
     <g id="text_6">
      <text style="font-family:DejaVu Sans;font-size:10px;font-style:normal;font-weight:normal;text-anchor:middle;" transform="rotate(-0, 398.519745, 322.182437)" x="398.519745" y="322.182437">1.0</text>
     </g>
    </g>
    <g id="text_7">
     <text style="font-family:DejaVu Sans;font-size:10px;font-style:normal;font-weight:normal;text-anchor:middle;" transform="rotate(-0, 236.16, 335.860562)" x="236.16" y="335.860562">Input Coin's Heads Probability (λ)</text>
    </g>
   </g>
   <g id="matplotlib.axis_2">
    <g id="ytick_1">
     <g id="line2d_7">
      <defs>
       <path d="M 0 0 
L -3.5 0 
" id="m0074a48b90" style="stroke:#000000;stroke-width:0.8;"/>
      </defs>
      <g>
       <use style="stroke:#000000;stroke-width:0.8;" x="57.6" xlink:href="#m0074a48b90" y="302.456889"/>
      </g>
     </g>
     <g id="text_8">
      <text style="font-family:DejaVu Sans;font-size:10px;font-style:normal;font-weight:normal;text-anchor:end;" transform="rotate(-0, 50.6, 306.256108)" x="50.6" y="306.256108">0.0</text>
     </g>
    </g>
    <g id="ytick_2">
     <g id="line2d_8">
      <g>
       <use style="stroke:#000000;stroke-width:0.8;" x="57.6" xlink:href="#m0074a48b90" y="252.679111"/>
      </g>
     </g>
     <g id="text_9">
      <text style="font-family:DejaVu Sans;font-size:10px;font-style:normal;font-weight:normal;text-anchor:end;" transform="rotate(-0, 50.6, 256.47833)" x="50.6" y="256.47833">0.2</text>
     </g>
    </g>
    <g id="ytick_3">
     <g id="line2d_9">
      <g>
       <use style="stroke:#000000;stroke-width:0.8;" x="57.6" xlink:href="#m0074a48b90" y="202.901333"/>
      </g>
     </g>
     <g id="text_10">
      <text style="font-family:DejaVu Sans;font-size:10px;font-style:normal;font-weight:normal;text-anchor:end;" transform="rotate(-0, 50.6, 206.700552)" x="50.6" y="206.700552">0.4</text>
     </g>
    </g>
    <g id="ytick_4">
     <g id="line2d_10">
      <g>
       <use style="stroke:#000000;stroke-width:0.8;" x="57.6" xlink:href="#m0074a48b90" y="153.123556"/>
      </g>
     </g>
     <g id="text_11">
      <text style="font-family:DejaVu Sans;font-size:10px;font-style:normal;font-weight:normal;text-anchor:end;" transform="rotate(-0, 50.6, 156.922774)" x="50.6" y="156.922774">0.6</text>
     </g>
    </g>
    <g id="ytick_5">
     <g id="line2d_11">
      <g>
       <use style="stroke:#000000;stroke-width:0.8;" x="57.6" xlink:href="#m0074a48b90" y="103.345778"/>
      </g>
     </g>
     <g id="text_12">
      <text style="font-family:DejaVu Sans;font-size:10px;font-style:normal;font-weight:normal;text-anchor:end;" transform="rotate(-0, 50.6, 107.144997)" x="50.6" y="107.144997">0.8</text>
     </g>
    </g>
    <g id="ytick_6">
     <g id="line2d_12">
      <g>
       <use style="stroke:#000000;stroke-width:0.8;" x="57.6" xlink:href="#m0074a48b90" y="53.568"/>
      </g>
     </g>
     <g id="text_13">
      <text style="font-family:DejaVu Sans;font-size:10px;font-style:normal;font-weight:normal;text-anchor:end;" transform="rotate(-0, 50.6, 57.367219)" x="50.6" y="57.367219">1.0</text>
     </g>
    </g>
    <g id="text_14">
     <text style="font-family:DejaVu Sans;font-size:10px;font-style:normal;font-weight:normal;text-anchor:middle;" transform="rotate(-90, 28.617187, 174.528)" x="28.617187" y="174.528">Simulated Mean / Function Value</text>
    </g>
   </g>
   <g id="line2d_13">
    <path clip-path="url(#pd1d177ccd0)" d="M 73.832727 290.90449 
L 77.112066 248.482066 
L 80.391405 234.564184 
L 83.670744 224.781708 
L 86.950083 216.987735 
L 90.229421 210.403193 
L 93.50876 204.645982 
L 96.788099 199.496825 
L 100.067438 194.816839 
L 103.346777 190.511852 
L 106.626116 186.514717 
L 109.905455 182.775679 
L 113.184793 179.256718 
L 116.464132 175.928058 
L 119.743471 172.765884 
L 123.02281 169.750823 
L 126.302149 166.866873 
L 129.581488 164.100647 
L 132.860826 161.44082 
L 136.140165 158.877716 
L 139.419504 156.402994 
L 142.698843 154.009409 
L 145.978182 151.690619 
L 149.257521 149.441042 
L 152.53686 147.255733 
L 155.816198 145.130291 
L 159.095537 143.060776 
L 162.374876 141.043648 
L 165.654215 139.075713 
L 168.933554 137.154077 
L 172.212893 135.276109 
L 175.492231 133.43941 
L 178.77157 131.641785 
L 182.050909 129.88122 
L 185.330248 128.155861 
L 188.609587 126.464 
L 191.888926 124.804057 
L 195.168264 123.174568 
L 198.447603 121.574172 
L 201.726942 120.001607 
L 205.006281 118.455691 
L 208.28562 116.935324 
L 211.564959 115.439476 
L 214.844298 113.967182 
L 218.123636 112.517535 
L 221.402975 111.089685 
L 224.682314 109.68283 
L 227.961653 108.296215 
L 231.240992 106.929128 
L 234.520331 105.580894 
L 237.799669 104.250877 
L 241.079008 102.938475 
L 244.358347 101.643114 
L 247.637686 100.364253 
L 250.917025 99.101376 
L 254.196364 97.853992 
L 257.475702 96.621635 
L 260.755041 95.403861 
L 264.03438 94.200245 
L 267.313719 93.010383 
L 270.593058 91.833889 
L 273.872397 90.670393 
L 277.151736 89.519543 
L 280.431074 88.381 
L 283.710413 87.25444 
L 286.989752 86.139553 
L 290.269091 85.036041 
L 293.54843 83.943619 
L 296.827769 82.862012 
L 300.107107 81.790955 
L 303.386446 80.730197 
L 306.665785 79.679492 
L 309.945124 78.638605 
L 313.224463 77.607311 
L 316.503802 76.585391 
L 319.78314 75.572636 
L 323.062479 74.568842 
L 326.341818 73.573814 
L 329.621157 72.587364 
L 332.900496 71.609307 
L 336.179835 70.639469 
L 339.459174 69.677679 
L 342.738512 68.723771 
L 346.017851 67.777587 
L 349.29719 66.838971 
L 352.576529 65.907774 
L 355.855868 64.983852 
L 359.135207 64.067064 
L 362.414545 63.157273 
L 365.693884 62.254349 
L 368.973223 61.358162 
L 372.252562 60.468588 
L 375.531901 59.585507 
L 378.81124 58.708801 
L 382.090579 57.838357 
L 385.369917 56.974064 
L 388.649256 56.115815 
L 391.928595 55.263505 
L 395.207934 54.417031 
L 398.487273 53.576297 
" style="fill:none;stroke:#1f77b4;stroke-linecap:square;stroke-width:1.5;"/>
   </g>
   <g id="line2d_14">
    <path clip-path="url(#pd1d177ccd0)" d="M 73.832727 295.488 
L 77.112066 254.172444 
L 80.391405 228.288 
L 83.670744 222.812444 
L 86.950083 215.843556 
L 90.229421 210.865778 
L 93.50876 202.901333 
L 96.788099 207.879111 
L 100.067438 194.936889 
L 103.346777 186.474667 
L 106.626116 187.470222 
L 109.905455 171.541333 
L 113.184793 176.519111 
L 116.464132 179.505778 
L 119.743471 171.541333 
L 123.02281 157.603556 
L 126.302149 166.065778 
L 129.581488 172.536889 
L 132.860826 162.581333 
L 136.140165 155.114667 
L 139.419504 153.621333 
L 142.698843 156.608 
L 145.978182 151.132444 
L 149.257521 145.656889 
L 152.53686 151.132444 
L 155.816198 133.710222 
L 159.095537 141.674667 
L 162.374876 144.661333 
L 165.654215 129.728 
L 168.933554 133.710222 
L 172.212893 125.745778 
L 175.492231 132.216889 
L 178.77157 125.248 
L 182.050909 130.225778 
L 185.330248 124.750222 
L 188.609587 125.248 
L 191.888926 132.216889 
L 195.168264 132.714667 
L 198.447603 126.243556 
L 201.726942 120.768 
L 205.006281 124.252444 
L 208.28562 113.799111 
L 211.564959 114.794667 
L 214.844298 115.790222 
L 218.123636 108.821333 
L 221.402975 112.803556 
L 224.682314 110.812444 
L 227.961653 100.359111 
L 231.240992 102.848 
L 234.520331 112.803556 
L 237.799669 108.821333 
L 241.079008 99.861333 
L 244.358347 102.350222 
L 247.637686 101.852444 
L 250.917025 97.372444 
L 254.196364 101.852444 
L 257.475702 95.381333 
L 260.755041 97.870222 
L 264.03438 97.870222 
L 267.313719 91.896889 
L 270.593058 92.394667 
L 273.872397 93.888 
L 277.151736 85.923556 
L 280.431074 82.439111 
L 283.710413 91.896889 
L 286.989752 86.919111 
L 290.269091 90.901333 
L 293.54843 88.412444 
L 296.827769 81.941333 
L 300.107107 83.932444 
L 303.386446 81.443556 
L 306.665785 75.470222 
L 309.945124 77.959111 
L 313.224463 73.976889 
L 316.503802 78.954667 
L 319.78314 73.976889 
L 323.062479 73.479111 
L 326.341818 77.461333 
L 329.621157 71.488 
L 332.900496 69.496889 
L 336.179835 68.003556 
L 339.459174 69.994667 
L 342.738512 65.016889 
L 346.017851 69.994667 
L 349.29719 66.012444 
L 352.576529 64.021333 
L 355.855868 63.523556 
L 359.135207 64.021333 
L 362.414545 63.025778 
L 365.693884 59.541333 
L 368.973223 64.021333 
L 372.252562 60.039111 
L 375.531901 60.039111 
L 378.81124 58.048 
L 382.090579 58.048 
L 385.369917 60.536889 
L 388.649256 55.559111 
L 391.928595 56.056889 
L 395.207934 54.563556 
L 398.487273 53.568 
" style="fill:none;stroke:#ff7f0e;stroke-linecap:square;stroke-width:1.5;"/>
   </g>
   <g id="patch_3">
    <path d="M 57.6 307.584 
L 57.6 41.472 
" style="fill:none;stroke:#000000;stroke-linecap:square;stroke-linejoin:miter;stroke-width:0.8;"/>
   </g>
   <g id="patch_4">
    <path d="M 414.72 307.584 
L 414.72 41.472 
" style="fill:none;stroke:#000000;stroke-linecap:square;stroke-linejoin:miter;stroke-width:0.8;"/>
   </g>
   <g id="patch_5">
    <path d="M 57.6 307.584 
L 414.72 307.584 
" style="fill:none;stroke:#000000;stroke-linecap:square;stroke-linejoin:miter;stroke-width:0.8;"/>
   </g>
   <g id="patch_6">
    <path d="M 57.6 41.472 
L 414.72 41.472 
" style="fill:none;stroke:#000000;stroke-linecap:square;stroke-linejoin:miter;stroke-width:0.8;"/>
   </g>
   <g id="text_15">
    <text style="font-family:DejaVu Sans;font-size:12px;font-style:normal;font-weight:normal;text-anchor:middle;" transform="rotate(-0, 236.16, 35.472)" x="236.16" y="35.472">Expected Value in pow(x,1/3) Algorithm</text>
   </g>
   <g id="legend_1">
    <g id="patch_7">
     <path d="M 64.6 78.82825 
L 247.192187 78.82825 
Q 249.192187 78.82825 249.192187 76.82825 
L 249.192187 48.472 
Q 249.192187 46.472 247.192187 46.472 
L 64.6 46.472 
Q 62.6 46.472 62.6 48.472 
L 62.6 76.82825 
Q 62.6 78.82825 64.6 78.82825 
z
" style="fill:#ffffff;opacity:0.8;stroke:#cccccc;stroke-linejoin:miter;"/>
    </g>
    <g id="line2d_15">
     <path d="M 66.6 54.570437 
L 86.6 54.570437 
" style="fill:none;stroke:#1f77b4;stroke-linecap:square;stroke-width:1.5;"/>
    </g>
    <g id="line2d_16"/>
    <g id="text_16">
     <text style="font-family:DejaVu Sans;font-size:10px;font-style:normal;font-weight:normal;text-anchor:start;" transform="rotate(-0, 94.6, 58.070437)" x="94.6" y="58.070437">pow(x,1/3)</text>
    </g>
    <g id="line2d_17">
     <path d="M 66.6 69.248562 
L 86.6 69.248562 
" style="fill:none;stroke:#ff7f0e;stroke-linecap:square;stroke-width:1.5;"/>
    </g>
    <g id="line2d_18"/>
    <g id="text_17">
     <text style="font-family:DejaVu Sans;font-size:10px;font-style:normal;font-weight:normal;text-anchor:start;" transform="rotate(-0, 94.6, 72.748562)" x="94.6" y="72.748562">Simulated Mean of pow(x,1/3)</text>
    </g>
   </g>
  </g>
 </g>
 <defs>
  <clipPath id="pd1d177ccd0">
   <rect height="266.112" width="357.12" x="57.6" y="41.472"/>
  </clipPath>
 </defs>
</svg>

<svg height="460.8" viewBox="0 0 460.8 345.6" width="614.4" xmlns="http://www.w3.org/2000/svg" xmlns:xlink="http://www.w3.org/1999/xlink"><defs><style>*{stroke-linecap:butt;stroke-linejoin:round}</style></defs><g id="figure_1"><path d="M0 345.6h460.8V0H0z" fill="#fff" id="patch_1"/><g id="axes_1"><path d="M57.6 307.584h357.12V41.472H57.6z" fill="#fff" id="patch_2"/><g id="matplotlib.axis_1"><g id="xtick_1"><g id="line2d_1"><defs><path d="M0 0v3.5" id="mffdb030c91" stroke="#000" stroke-width=".8"/></defs><use x="73.8" xlink:href="#mffdb030c91" y="307.584" stroke="#000" stroke-width=".8"/></g><text x="73.8" y="322.182" font-family="DejaVu Sans" font-size="10" font-weight="400" text-anchor="middle" id="text_1">0.0</text></g><g id="xtick_2"><use x="138.744" xlink:href="#mffdb030c91" y="307.584" stroke="#000" stroke-width=".8" id="line2d_2"/><text x="138.744" y="322.182" font-family="DejaVu Sans" font-size="10" font-weight="400" text-anchor="middle" id="text_2">0.2</text></g><g id="xtick_3"><use x="203.688" xlink:href="#mffdb030c91" y="307.584" stroke="#000" stroke-width=".8" id="line2d_3"/><text x="203.688" y="322.182" font-family="DejaVu Sans" font-size="10" font-weight="400" text-anchor="middle" id="text_3">0.4</text></g><g id="xtick_4"><use x="268.632" xlink:href="#mffdb030c91" y="307.584" stroke="#000" stroke-width=".8" id="line2d_4"/><text x="268.632" y="322.182" font-family="DejaVu Sans" font-size="10" font-weight="400" text-anchor="middle" id="text_4">0.6</text></g><g id="xtick_5"><use x="333.576" xlink:href="#mffdb030c91" y="307.584" stroke="#000" stroke-width=".8" id="line2d_5"/><text x="333.576" y="322.182" font-family="DejaVu Sans" font-size="10" font-weight="400" text-anchor="middle" id="text_5">0.8</text></g><g id="xtick_6"><use x="398.52" xlink:href="#mffdb030c91" y="307.584" stroke="#000" stroke-width=".8" id="line2d_6"/><text x="398.52" y="322.182" font-family="DejaVu Sans" font-size="10" font-weight="400" text-anchor="middle" id="text_6">1.0</text></g><text x="236.16" y="335.861" font-family="DejaVu Sans" font-size="10" font-weight="400" text-anchor="middle" id="text_7">Input Coin&apos;s Heads Probability (λ)</text></g><g id="matplotlib.axis_2"><g id="ytick_1"><g id="line2d_7"><defs><path d="M0 0h-3.5" id="m0074a48b90" stroke="#000" stroke-width=".8"/></defs><use x="57.6" xlink:href="#m0074a48b90" y="302.457" stroke="#000" stroke-width=".8"/></g><text x="50.6" y="306.256" font-family="DejaVu Sans" font-size="10" font-weight="400" text-anchor="end" id="text_8">0.0</text></g><g id="ytick_2"><use x="57.6" xlink:href="#m0074a48b90" y="252.679" stroke="#000" stroke-width=".8" id="line2d_8"/><text x="50.6" y="256.478" font-family="DejaVu Sans" font-size="10" font-weight="400" text-anchor="end" id="text_9">0.2</text></g><g id="ytick_3"><use x="57.6" xlink:href="#m0074a48b90" y="202.901" stroke="#000" stroke-width=".8" id="line2d_9"/><text x="50.6" y="206.701" font-family="DejaVu Sans" font-size="10" font-weight="400" text-anchor="end" id="text_10">0.4</text></g><g id="ytick_4"><use x="57.6" xlink:href="#m0074a48b90" y="153.124" stroke="#000" stroke-width=".8" id="line2d_10"/><text x="50.6" y="156.923" font-family="DejaVu Sans" font-size="10" font-weight="400" text-anchor="end" id="text_11">0.6</text></g><g id="ytick_5"><use x="57.6" xlink:href="#m0074a48b90" y="103.346" stroke="#000" stroke-width=".8" id="line2d_11"/><text x="50.6" y="107.145" font-family="DejaVu Sans" font-size="10" font-weight="400" text-anchor="end" id="text_12">0.8</text></g><g id="ytick_6"><use x="57.6" xlink:href="#m0074a48b90" y="53.568" stroke="#000" stroke-width=".8" id="line2d_12"/><text x="50.6" y="57.367" font-family="DejaVu Sans" font-size="10" font-weight="400" text-anchor="end" id="text_13">1.0</text></g><text transform="rotate(-90 28.617 174.528)" x="28.617" y="174.528" font-family="DejaVu Sans" font-size="10" font-weight="400" text-anchor="middle" id="text_14">Simulated Mean / Function Value</text></g><path clip-path="url(#pd1d177ccd0)" d="M73.833 290.904l3.28-42.422 3.278-13.918 3.28-9.782 3.28-7.794 3.278-6.585 3.28-5.757 3.28-5.15 3.278-4.68 3.28-4.304 3.28-3.997 3.278-3.74 3.28-3.518 3.28-3.329 3.278-3.162 3.28-3.015 3.28-2.884 3.278-2.766 3.28-2.66 3.28-2.563 3.279-2.475 3.279-2.394 3.28-2.318 3.279-2.25 3.279-2.185 3.28-2.126 3.279-2.07 3.279-2.016 3.28-1.968 3.279-1.922 3.279-1.878 3.28-1.837 3.279-1.797 3.279-1.76 3.28-1.726 3.279-1.692 3.279-1.66 3.28-1.63 3.279-1.6 3.279-1.572 3.28-1.546 3.279-1.52 3.279-1.497 3.28-1.472 3.279-1.45 3.279-1.427 3.28-1.407 3.279-1.387 3.279-1.367 3.28-1.348 3.279-1.33 3.279-1.313 3.28-1.295 3.279-1.279 3.279-1.263 3.28-1.247 3.279-1.232 3.279-1.218 3.28-1.204 3.279-1.19 3.28-1.176 3.278-1.164 3.28-1.15 3.28-1.139 3.278-1.127 3.28-1.114 3.28-1.104 3.278-1.092 3.28-1.082 3.28-1.071 3.278-1.06 3.28-1.052 3.28-1.04 3.278-1.032 3.28-1.022 3.28-1.012 3.278-1.004 3.28-.995 3.28-.987 3.278-.978 3.28-.97 3.28-.961 3.279-.954 3.279-.946 3.28-.939 3.279-.931 3.279-.924 3.28-.917 3.279-.91 3.279-.903 3.28-.896 3.279-.89 3.279-.882 3.28-.877 3.279-.87 3.279-.865 3.28-.858 3.279-.852 3.279-.847 3.28-.84" fill="none" stroke="#1f77b4" stroke-linecap="square" stroke-width="1.5" id="line2d_13"/><path clip-path="url(#pd1d177ccd0)" d="M73.833 295.488l3.28-41.316 3.278-25.884 3.28-5.476 3.28-6.968 3.278-4.978 3.28-7.965 3.28 4.978 3.278-12.942 3.28-8.462 3.28.995 3.278-15.929 3.28 4.978 3.28 2.987 3.278-7.965 3.28-13.937 3.28 8.462 3.278 6.47 3.28-9.955 3.28-7.466 3.279-1.494 3.279 2.987 3.28-5.476 3.279-5.475 3.279 5.475 3.28-17.422 3.279 7.965 3.279 2.986 3.28-14.933 3.279 3.982 3.279-7.964 3.28 6.47 3.279-6.968 3.279 4.978 3.28-5.476 3.279.498 3.279 6.969 3.28.498 3.279-6.471 3.279-5.476 3.28 3.484 3.279-10.453 3.279.996 3.28.995 3.279-6.969 3.279 3.983 3.28-1.992 3.279-10.453 3.279 2.489 3.28 9.956 3.279-3.983 3.279-8.96 3.28 2.49 3.279-.499 3.279-4.48 3.28 4.48 3.279-6.47 3.279 2.488h3.28l3.279-5.973 3.28.498 3.278 1.493 3.28-7.964 3.28-3.485 3.278 9.458 3.28-4.978 3.28 3.982 3.278-2.489 3.28-6.47 3.28 1.99 3.278-2.488 3.28-5.974 3.28 2.49 3.278-3.983 3.28 4.978 3.28-4.978 3.278-.498 3.28 3.982 3.28-5.973 3.278-1.991 3.28-1.493 3.28 1.99 3.279-4.977 3.279 4.978 3.28-3.983 3.279-1.99 3.279-.498 3.28.497 3.279-.995 3.279-3.485 3.28 4.48 3.279-3.982h3.279l3.28-1.991h3.279l3.279 2.489 3.28-4.978 3.279.498 3.279-1.493 3.28-.996" fill="none" stroke="#ff7f0e" stroke-linecap="square" stroke-width="1.5" id="line2d_14"/><path d="M57.6 307.584V41.472" fill="none" stroke="#000" stroke-linecap="square" stroke-width=".8" id="patch_3"/><path d="M414.72 307.584V41.472" fill="none" stroke="#000" stroke-linecap="square" stroke-width=".8" id="patch_4"/><path d="M57.6 307.584h357.12" fill="none" stroke="#000" stroke-linecap="square" stroke-width=".8" id="patch_5"/><path d="M57.6 41.472h357.12" fill="none" stroke="#000" stroke-linecap="square" stroke-width=".8" id="patch_6"/><text x="236.16" y="35.472" font-family="DejaVu Sans" font-size="12" font-weight="400" text-anchor="middle" id="text_15">Expected Value in pow(x,1/3) Algorithm</text><g id="legend_1"><path d="M64.6 78.828h182.592q2 0 2-2V48.472q0-2-2-2H64.6q-2 0-2 2v28.356q0 2 2 2z" fill="#fff" opacity=".8" stroke="#ccc" id="patch_7"/><path d="M66.6 54.57h20" fill="none" stroke="#1f77b4" stroke-linecap="square" stroke-width="1.5" id="line2d_15"/><text x="94.6" y="58.07" font-family="DejaVu Sans" font-size="10" font-weight="400" id="text_16">pow(x,1/3)</text><path d="M66.6 69.249h20" fill="none" stroke="#ff7f0e" stroke-linecap="square" stroke-width="1.5" id="line2d_17"/><text x="94.6" y="72.749" font-family="DejaVu Sans" font-size="10" font-weight="400" id="text_17">Simulated Mean of pow(x,1/3)</text></g></g></g><defs><clipPath id="pd1d177ccd0"><path d="M57.6 41.472h357.12v266.112H57.6z"/></clipPath></defs></svg>
